packages/icon/src/svg/author-kit.icon.svg

<svg width="24" height="24" viewBox="0 0 24 24" fill="none" xmlns="http://www.w3.org/2000/svg">
<path fill-rule="evenodd" clip-rule="evenodd" d="M14.99 11C14.99 12.66 13.66 14 12 14C10.34 14 8.99999 12.66 8.99999 11V5C8.99999 3.34 10.34 2 12 2C13.66 2 15 3.34 15 5L14.99 11ZM12 3.7C11.34 3.7 10.8 4.24 10.8 4.9V11.1C10.8 11.76 11.34 12.3 12 12.3C12.66 12.3 13.19 11.76 13.19 11.1L13.2 4.9C13.2 4.24 12.66 3.7 12 3.7ZM17.269 11.4575C17.2469 11.7161 17.22 11.9197 17.1881 12.0683C16.6691 14.4868 14.4191 16.1 12 16.1C9.58138 16.1 7.33171 14.4874 6.81219 12.0696C6.78021 11.9208 6.75314 11.7168 6.73099 11.4575L6.73105 11.4575C6.70895 11.1988 6.49248 11 6.23281 11H5.53146V11C5.2553 11 5.03143 11.2238 5.03143 11.5C5.03143 11.5131 5.03195 11.5262 5.03298 11.5392C5.05361 11.8013 5.07856 12.0108 5.10783 12.1677C5.6429 15.0369 8.10303 17.2872 11 17.72V20H9.49999C9.22385 20 8.99999 20.2239 8.99999 20.5V21.5C8.99999 21.7761 9.22385 22 9.49999 22H14.5C14.7761 22 15 21.7761 15 21.5V20.5C15 20.2239 14.7761 20 14.5 20H13V17.72C15.9273 17.2916 18.4086 14.9994 18.9083 12.0802C18.9319 11.9426 18.9521 11.7618 18.9691 11.5377L18.9691 11.5377C18.9899 11.2624 18.7836 11.0223 18.5082 11.0014C18.4957 11.0005 18.4831 11 18.4705 11H17.7672V11C17.5076 11 17.2911 11.1987 17.269 11.4575Z" fill="white"/>
</svg>

<svg aria-label="author kit icon" viewBox="0 0 24 24"><path fill-rule="evenodd" clip-rule="evenodd" d="M14.99 11c0 1.66-1.33 3-2.99 3-1.66 0-3-1.34-3-3V5c0-1.66 1.34-3 3-3s3 1.34 3 3l-.01 6zM12 3.7c-.66 0-1.2.54-1.2 1.2v6.2c0 .66.54 1.2 1.2 1.2.66 0 1.19-.54 1.19-1.2l.01-6.2c0-.66-.54-1.2-1.2-1.2zm5.269 7.757a5.153 5.153 0 01-.08.611c-.52 2.419-2.77 4.032-5.189 4.032s-4.668-1.613-5.188-4.03a5.15 5.15 0 01-.081-.613.5.5 0 00-.498-.457H5.53a.5.5 0 00-.498.54c.02.261.046.47.075.628.535 2.869 2.995 5.12 5.892 5.552V20H9.5a.5.5 0 00-.5.5v1a.5.5 0 00.5.5h5a.5.5 0 00.5-.5v-1a.5.5 0 00-.5-.5H13v-2.28c2.927-.428 5.409-2.72 5.908-5.64.024-.137.044-.318.061-.542a.5.5 0 00-.498-.538h-.704a.5.5 0 00-.498.457z"/></svg>
